X:777
T:Reel 777
M:4/4
K:Dmaj
L:1/8
F2DE FAGE|EDGE FDDG|FEFE dcAG|FDEF GECE|FEDE FGAB|cAdB cAGE|FEFG A2AG|FAGE FDD2|Addc d2cd|efed cAAB|ABce d2dA|ABAG EDD2|Addc d2ed|cAAB cde2|fdec dAAB|cAGE EDD2|
